X:138
T:Mouse in the Cupboard, The   
B:CRE1.010 (Ballai Lios Chearbhaill)
F:file ID: cre.1/138mouse
S:John Potts
N:There are other tunes not related to this one that are also 
called "Walls of Liscarroll". The title I'm using is mentioned in 
Breathnach's notes as an alternate name.
M:6/8
Q:160
R:jig
K:G
G/A/|BAG AGF|DGG FGA|BAB cBc|dgg fdc|
BAG AGF|DGG FGA|BdB cAF|AGG G2:|
A|BAB cBc|dgg fdc|BAB cBc|dBG FGA|
BAB cBc|dgg fdc|BdB cAF|AGG G2A|
BAB cBc|dgg fd^c|def gfg|eag fd^c|
dgg bgg|a2g fdc|BdB cAF|AGG HG3|]

%%%

